svgs/sharp-solid/folder-medical.svg

<svg xmlns="http://www.w3.org/2000/svg" viewBox="0 0 512 512"><!--! Font Awesome Pro 6.6.0 by @fontawesome - https://fontawesome.com License - https://fontawesome.com/license (Commercial License) Copyright 2024 Fonticons, Inc. --><path d="M512 480L0 480 0 32l224 0 48 64 240 0 0 384zM224 192l0 64-64 0 0 64 64 0 0 64 64 0 0-64 64 0 0-64-64 0 0-64-64 0z"/></svg>

<svg xmlns="http://www.w3.org/2000/svg" viewBox="0 0 512 512"><!--! Font Awesome Pro 6.5.2 by @fontawesome - https://fontawesome.com License - https://fontawesome.com/license (Commercial License) Copyright 2024 Fonticons, Inc. --><path d="M512 480H0V32H224l48 64H512V480zM224 192v64H160v64h64v64h64V320h64V256H288V192H224z"/></svg>
